X:2750
T:I am waiting for you
O:england
M:4/4
L:1/8
K:G
D|G2BG dGBG|AGFG ABcA|BAGF GBAc|defd caFA|
G2BG dGBG|AGFG ABcA|(3Bcd) GB cBAG|FGAF G3:|
d|g2fg ecAG|(3fed) AD BDAD|E3F G3A|(3BAd) ^ce d2fe|
gfed ecAG|(3fed) AD BDAD|G2fe DGBd|cAFA G3:|
